Catalina-dark/actions/16/network-disconnect.svg

<svg xmlns="http://www.w3.org/2000/svg" width="16" height="16" viewBox="0 0 16 16">
 <defs>
  <style id="current-color-scheme" type="text/css">
   .ColorScheme-Text { color:#5c616c; } .ColorScheme-Highlight { color:#5294e2; }
  </style>
 </defs>
 <path style="fill:currentColor" class="ColorScheme-Highlight" d="M 8 0.99609375 C 4.134 0.99609375 1 4.1300937 1 7.9960938 C 1 11.862094 4.134 14.996094 8 14.996094 C 11.866 14.996094 15 11.862094 15 7.9960938 C 15 4.1300937 11.866 0.99609375 8 0.99609375 z M 7.5 2.9335938 C 7.5669 2.9265937 7.65125 2.9375937 7.71875 2.9335938 C 7.72675 2.9655938 7.67005 3.0794638 7.59375 3.2460938 C 7.10789 4.3074937 7.08033 5.5504437 7.53125 6.2148438 C 7.61285 6.3353038 7.6875 6.4499437 7.6875 6.4648438 C 7.6875 6.4797438 7.5995 6.4960938 7.5 6.4960938 C 7.26642 6.4960938 7.04538 6.3537238 6.59375 5.9960938 C 6.39312 5.8372237 6.1323 5.7037938 6.03125 5.6835938 C 5.87257 5.6518937 5.83028 5.6657938 5.625 5.8710938 C 5.43401 6.0620537 5.375 6.1650237 5.375 6.3398438 C 5.375 7.0027837 6.16208 7.5297437 7.625 7.8398438 C 9.6117 8.2609137 10.10145 8.6389138 10.15625 9.6835938 C 10.22505 10.993594 9.5276 11.981394 8 12.746094 C 7.81767 12.837394 7.7015 12.872844 7.625 12.902344 C 7.5911 12.899344 7.56505 12.905344 7.53125 12.902344 C 7.51825 12.861844 7.5 12.767884 7.5 12.589844 C 7.5 11.894064 7.22575 11.177844 6.8125 10.777344 C 6.70157 10.669824 6.39098 10.441994 6.125 10.277344 C 5.85903 10.112704 5.59105 9.9214438 5.53125 9.8398438 C 5.43215 9.7044337 5.42386 9.6212437 5.5 9.3710938 C 5.63876 8.9142237 5.80392 8.6597637 6.125 8.3710938 C 6.29333 8.2197537 6.46271 8.0928437 6.5 8.0898438 C 6.5373 8.0868438 6.28485 8.0110437 5.90625 7.9335938 C 5.52767 7.8559938 4.97383 7.6934738 4.6875 7.5898438 C 4.16392 7.4003938 3.457 7.0026837 3.1875 6.7148438 C 3.1761 6.7026437 3.16615 6.6943938 3.15625 6.6835938 C 3.54238 5.1454938 4.626 3.8848438 6.0625 3.2773438 C 6.36307 3.1502138 6.67292 3.0629938 7 2.9960938 C 7.16292 2.9627938 7.33178 2.9506937 7.5 2.9335938 z M 12.1875 5.2773438 C 12.30495 5.3499437 12.74841 6.3093438 12.875 6.7773438 C 13.03844 7.3815337 13.02661 8.4271437 12.875 9.0273438 C 12.8173 9.2557838 12.74335 9.4694937 12.71875 9.4960938 C 12.69415 9.5226938 12.60494 9.3695637 12.5 9.1835938 C 12.39505 8.9976538 12.05984 8.6025437 11.78125 8.3085938 C 10.97711 7.4600637 10.85066 7.0170437 11.1875 6.3398438 C 11.35737 5.9983538 12.0966 5.2212438 12.1875 5.2773438 z"/>
</svg>

<svg width="16" height="16" viewBox="0 0 16 16" xmlns="http://www.w3.org/2000/svg">
<defs>
<style id="current-color-scheme" type="text/css">.ColorScheme-Text { color:#5c616c; } .ColorScheme-Highlight { color:#5294e2; }</style>
</defs>
<path class="ColorScheme-Highlight" d="m8 0.99609c-3.866 0-7 3.134-7 7 0 3.866 3.134 7 7 7s7-3.134 7-7c0-3.866-3.134-7-7-7zm-0.5 1.9375c0.0669-0.0070001 0.15125 0.0039999 0.21875 0 8e-3 0.032-0.0487 0.14587-0.125 0.3125-0.48586 1.0614-0.51342 2.3043-0.0625 2.9688 0.0816 0.12046 0.15625 0.2351 0.15625 0.25 0 0.0149-0.088 0.03125-0.1875 0.03125-0.23358 0-0.45462-0.14237-0.90625-0.5-0.20063-0.15887-0.46145-0.2923-0.5625-0.3125-0.15868-0.0317-0.20097-0.0178-0.40625 0.1875-0.19099 0.19096-0.25 0.29393-0.25 0.46875 0 0.66294 0.78708 1.1899 2.25 1.5 1.9867 0.42107 2.4764 0.79907 2.5312 1.8438 0.0688 1.31-0.62865 2.2978-2.1562 3.0625-0.18233 0.0913-0.2985 0.12675-0.375 0.15625-0.0339-3e-3 -0.05995 3e-3 -0.09375 0-0.013-0.0405-0.03125-0.13446-0.03125-0.3125 0-0.69578-0.27425-1.412-0.6875-1.8125-0.11093-0.10752-0.42152-0.33535-0.6875-0.5-0.26597-0.16464-0.53395-0.3559-0.59375-0.4375-0.0991-0.13541-0.10739-0.2186-0.03125-0.46875 0.13876-0.45687 0.30392-0.71133 0.625-1 0.16833-0.15134 0.33771-0.27825 0.375-0.28125 0.0373-3e-3 -0.21515-0.0788-0.59375-0.15625-0.37858-0.0776-0.93242-0.24012-1.2188-0.34375-0.52358-0.18945-1.2305-0.58716-1.5-0.875-0.0114-0.0122-0.02135-0.02045-0.03125-0.03125 0.38613-1.5381 1.4698-2.7988 2.9062-3.4062 0.30057-0.12713 0.61042-0.21435 0.9375-0.28125 0.16292-0.0333 0.33178-0.0454 0.5-0.0625zm4.6875 2.3438c0.11745 0.0726 0.56091 1.032 0.6875 1.5 0.16344 0.60419 0.15161 1.6498 0 2.25-0.0577 0.22844-0.13165 0.44215-0.15625 0.46875-0.0246 0.0266-0.11381-0.12653-0.21875-0.3125-0.10495-0.18594-0.44016-0.58105-0.71875-0.875-0.80414-0.84853-0.93059-1.2916-0.59375-1.9688 0.16987-0.34149 0.9091-1.1186 1-1.0625z" fill="currentColor"/>
</svg>
